X:1
T:Title
%%score { 1 | 2 }
L:1/8
Q:1/4=90
M:6/8
K:G
V:1 treble nm="Grand Piano"
V:2 treble 
V:1
 ddd dBA | G3 G3 | [DB][DB][DB] [^CB][CA][CG] | A3 A3 | DAA AG[FA] | BGE D3 | DAA AG[FA] | BGE D3 | %8
w: Elisha~A.~Hoffman * * * * *||||||||
 d3 dBG | [Fd]2 [Fd] B3 | GG[EG] [CA]2 [DB] | [B,G]6 |] %12
w: ||||
V:2
 [G,B,G][G,B,G][G,B,G] [G,B,G][G,DG][G,CG] | [G,B,]3 [G,B,D]3 | %2
 [G,,G,][G,,G,][G,,G,] [A,,G,][A,,G,][A,,G,] | [D,F,D]3 [D,F,D]3 | %4
 [D,F,][D,CD][D,CD] [D,CD][D,B,D][D,C] | [G,DG][G,B,D][K:bass][G,C] [G,B,]3 | %6
 [D,F,][D,CD][D,CD] [D,CD][D,B,D][D,C] | [G,DG][G,B,D][G,C] [G,B,]3 | %8
 [G,B,G]3 [G,B,G][G,DG][K:bass][G,B,] | [D,A,]2 [D,D] [G,DG]3 | %10
 [E,E][E,B,E][B,,G,] [D,F,]2 [D,F,] | [G,,G,]6 |] %12

